24x24/actions/distribute-horizontal-node.svg

<svg xmlns="http://www.w3.org/2000/svg" viewBox="0 0 24 24"><path style="fill:currentColor;fill-opacity:1;stroke:none;color:#5d656b" d="M10 10v4h4v-4h-4zm1 1h2v2h-2v-2zm-7 5v4h4v-4H4zm12 0v4h4v-4h-4zM5 17h2v2H5v-2zm12 0h2v2h-2v-2z"/><path style="fill:currentColor;fill-opacity:1;stroke:none;color:#3daee9" d="M6 4v4h1V7h2v1h1V4H9v1H7V4H6zm8 0v4h1V7h2v1h1V4h-1v1h-2V4h-1z"/></svg>

<svg xmlns="http://www.w3.org/2000/svg" viewBox="0 0 24 24">
  <defs id="defs3051">
    <style type="text/css" id="current-color-scheme">
      .ColorScheme-Text {
        color:#5d656b;
      }
      .ColorScheme-Highlight {
        color:#3daee9;
      }
      </style>
  </defs>
 <path 
     style="fill:currentColor;fill-opacity:1;stroke:none" 
     d="M 10 10 L 10 14 L 14 14 L 14 10 L 10 10 z M 11 11 L 13 11 L 13 13 L 11 13 L 11 11 z M 4 16 L 4 20 L 8 20 L 8 16 L 4 16 z M 16 16 L 16 20 L 20 20 L 20 16 L 16 16 z M 5 17 L 7 17 L 7 19 L 5 19 L 5 17 z M 17 17 L 19 17 L 19 19 L 17 19 L 17 17 z "
     class="ColorScheme-Text"
     />
 <path 
     style="fill:currentColor;fill-opacity:1;stroke:none" 
     d="M 6 4 L 6 8 L 7 8 L 7 7 L 9 7 L 9 8 L 10 8 L 10 4 L 9 4 L 9 5 L 7 5 L 7 4 L 6 4 z M 14 4 L 14 8 L 15 8 L 15 7 L 17 7 L 17 8 L 18 8 L 18 4 L 17 4 L 17 5 L 15 5 L 15 4 L 14 4 z "
     class="ColorScheme-Highlight"
     />
</svg>
